X: 2
T: Hogtie's Reel
C: Phil Cunningham
R: Reel
S: Francis Lynne
H:
N:
D: Milltown Session
Z: Adrian Scahill
M: 4/4
L: 1/8
K: G
edeg A2gf | edef g2fg | edeg A2ag | egdB BAA2 |
edeg A2gf | edef g2fg | eage degd | egdB BAA2 :|
aAA2 a2ge | dBde g2fg | aAA2 a2ge | dBeg BAA2 |
aAA2 a2ge | dBde g2fg | eage degd | egdB BAA2 :|
